!!!OTL: TREUE LIEBE BIS ZUM GRABE
!!!ARE: Europa, Mitteleuropa, Deutschland
!!!SCT: F0468
!!!YEM: Copyright 1995, estate of Helmut Schaffrath.
**kern
*ICvox
*Ivox
*M3/4
*k[f#]
*G:
{8.d
16g
=1
4b
4b
8.a
16b
=2
8a
8g
4g}
{8.g
16b
=3
4.dd
8ee
8cc
8dd
=4
2b}
{8.g
16b
=5
4.a
8a
8.b
16cc#
=6
4dd
4a}
{8.a
16dd
=7
4.ff#
8cc
8.ee
16cc#
=8
2dd}
{8a
8b
=9
4.cc
8a
8g
8b
=10
8b
8a
4a}
{8a
8b
=11
4.cc
8a
8g
8b
=12
4b
4a
4r}
=13
{8.g
16g
8a
8b
8cc
8dd
=14
4ee
4cc}
{8.gg
16ee
=15
4.dd
8b
8.cc
16a
=16
2g}
==
!!!AGN: Vaterlands -, Heimat - Lied
!!!ONB: ESAC (Essen Associative Code) Database: FINK
!!!AMT: simple triple
!!!AIN: vox
!!!EED: Helmut Schaffrath
!!!EEV: 1.0
*-
